docs/assets/images/calc-svg/chamfer-12.svg

<svg width="76" height="44" viewBox="0 0 76 44" fill="none" xmlns="http://www.w3.org/2000/svg">
<path d="M74.8889 25.2083L33.7639 43L1.68056 35.125L1 12.9583L45.5278 1L61.1806 3.28054V6.54167L62.7793 6.84143C68.0856 7.83637 71.8193 12.6288 71.4861 18.0173L74.8889 18.5V25.2083Z" fill="#D2D2D2"/>
<path d="M33.7639 43L74.8889 25.2083V18.5M33.7639 43L1.68056 35.125L1 12.9583M33.7639 43V35.2222M1 12.9583L45.5278 1L61.1806 3.28054M1 12.9583L18.3056 16.2962M18.3056 16.2962V20.25M18.3056 16.2962L61.1806 3.28054M33.7639 35.2222L29.7778 34.2445M33.7639 35.2222L74.8889 18.5M29.7778 34.2445L71.4861 18.0173M29.7778 34.2445C30.2218 27.5872 25.6291 21.645 19.0749 20.3965L18.3056 20.25M18.3056 20.25L61.1806 6.54167M61.1806 3.28054V6.54167M74.8889 18.5L71.4861 18.0173M61.1806 6.54167L62.7793 6.84143C68.0856 7.83637 71.8193 12.6288 71.4861 18.0173" stroke="#838383"/>
</svg>

<svg width="76" height="44" fill="none" xmlns="http://www.w3.org/2000/svg"><path d="M74.889 25.208L33.764 43 1.68 35.125 1 12.958 45.528 1 61.18 3.28v3.262l1.598.3a10.699 10.699 0 018.707 11.175l3.403.483v6.708z" fill="#D2D2D2"/><path d="M33.764 43l41.125-17.792V18.5M33.764 43L1.68 35.125 1 12.958M33.764 43v-7.778M1 12.958L45.528 1 61.18 3.28M1 12.959l17.306 3.338m0 0v3.954m0-3.954L61.18 3.281M33.764 35.222l-3.986-.977m3.986.977L74.889 18.5M29.778 34.245l41.708-16.228M29.778 34.245a13.203 13.203 0 00-10.703-13.848l-.77-.147m0 0L61.182 6.542m0-3.261v3.26M74.889 18.5l-3.403-.483M61.181 6.542l1.598.3a10.699 10.699 0 018.707 11.175" stroke="#838383"/></svg>
